build/assets/fonts/46f8af3b7129313668e112509e361f0d.svg

<svg width="100" height="60" viewBox="0 0 100 60" version="1.1" xmlns="http://www.w3.org/2000/svg" xmlns:xlink="http://www.w3.org/1999/xlink"><title>Paybox-light</title><desc>Created with Sketch.</desc><g id="Light-Payment-badges" stroke="none" stroke-width="1" fill="none" fill-rule="evenodd" transform="translate(-770.000000, -1289.000000)"><g id="Paybox-light" transform="translate(770.000000, 1289.000000)"><rect id="Rectangle" fill="#FFF" x="0" y="0" width="100" height="60" rx="4"/><path d="M18.0799659,19.5396246 L16.6880655,19.5396246 L16.6880655,26.690923 L18.0799659,26.690923 C20.5640828,26.690923 22.3912516,25.7416075 22.3912516,22.9994939 C22.3912516,20.3457073 20.3914994,19.5396246 18.0799659,19.5396246 M18.2241913,28.5975116 L16.6880655,28.5975116 L16.6880655,36.1840788 L14.5777091,36.1840788 L14.5777091,17.6330361 L17.9704615,17.6330361 C21.5907851,17.6330361 24.467437,18.9022384 24.467437,22.9994939 C24.467437,26.8365431 21.789527,28.5975116 18.2241913,28.5975116" id="Fill-7" fill="#005992"/><path d="M32.3856921,31.1852519 C31.7863242,30.3202846 30.362138,29.7425787 29.5058981,29.7425787 C27.8884688,29.7425787 26.6056801,30.4611302 26.6056801,32.2809833 C26.6056801,33.810392 27.8546906,34.6483042 29.28359,34.6483042 C30.362138,34.6483042 32.3856921,33.6647719 32.3856921,32.4258076 L32.3856921,31.1852519 L32.3856921,31.1852519 Z M33.0714696,36.001059 C32.841306,36.001059 32.812241,35.7137975 32.812241,35.7137975 L32.5294462,34.9053276 C31.5899389,35.8602134 30.476827,36.3774431 29.1398359,36.3774431 C26.747863,36.3774431 24.467437,34.9928588 24.467437,32.3390722 C24.467437,29.5118147 26.5483356,28.0404949 29.2254599,28.0404949 C30.391203,28.0404949 31.4721077,28.4144918 32.3856921,29.1378178 L32.3856921,27.6641108 C32.3856921,25.791739 31.0714817,25.0119156 29.3621441,25.0119156 C27.3409466,25.0119156 26.1217867,25.8211813 26.1217867,25.8211813 L25.7494402,24.7238584 C26.8303448,23.8588911 28.2231094,23.3074446 29.5946643,23.3074446 C32.2702176,23.3074446 34.4610919,24.6068849 34.4610919,27.5503202 L34.4610919,36.001059 L33.0714696,36.001059 L33.0714696,36.001059 Z" id="Fill-8" fill="#005992"/><path d="M37.4320087,23.6058464 L40.1900438,31.2178772 C40.5050458,32.0677255 40.8208334,33.0799044 41.0305729,33.8509746 L41.0832042,33.8509746 C41.3204376,33.0799044 41.5820228,32.0947806 41.8985959,31.163767 L44.4201831,23.6058464 L46.8632162,23.6058464 L43.3950519,32.7870728 C41.7399166,37.2050108 40.6103084,39.4672942 39.0345127,40.8773422 C37.8781961,41.862466 36.7745107,42.2611308 36.1963524,42.3669639 L35.6189797,40.3991036 C36.1963524,40.2383645 36.9583274,39.8667548 37.6417482,39.2540364 C38.2725378,38.747947 39.0345127,37.8431927 39.5859626,36.6448111 C39.6912252,36.4060897 39.7697793,36.2453506 39.7697793,36.0869987 C39.7697793,35.9533147 39.7163625,35.767112 39.5859626,35.5013355 L34.909636,23.6058464 L37.4320087,23.6058464" id="Fill-9" fill="#005992"/><path d="M50.1860554,30.911518 C50.1860554,31.2727831 50.215906,31.583121 50.3038866,31.8942546 C50.7720692,33.5748535 51.9904435,34.6101088 53.7186342,34.6101088 C56.4727416,34.6101088 57.9087108,32.5141346 57.9087108,29.9534493 C57.9087108,27.2129272 56.3266309,25.1440081 53.6605041,25.1440081 C51.7272872,25.1440081 50.6840885,26.3344324 50.3038866,27.7556206 C50.215906,28.0659585 50.1860554,28.4280194 50.1860554,28.739153 L50.1860554,30.911518 L50.1860554,30.911518 Z M50.1860554,17.7993453 L50.1860554,25.2474541 L50.244971,25.2474541 C50.8608353,24.2647175 51.9613785,23.3591676 54.1577517,23.3591676 C57.5874245,23.3591676 60.180496,25.8935935 60.1522165,30.0831546 C60.1522165,33.8851914 57.8497953,36.4450809 54.4224791,36.4450809 C52.1082747,36.4450809 50.7720692,35.3851577 49.9810292,33.9886373 L49.9228991,33.9886373 L49.8058535,36.1610024 L47.9229113,36.1610024 C48.0116774,35.3071754 48.0407424,34.0522964 48.0407424,32.9414459 L48.0407424,17.7993453 L50.1860554,17.7993453 L50.1860554,17.7993453 Z" id="Fill-10" fill="#005992"/><path d="M67.5480868,35.1400704 C70.1262329,35.1400704 71.5841974,32.7353498 71.5841974,29.8380673 C71.5841974,27.3020499 70.2754858,24.6514463 67.5661542,24.6514463 C64.8560371,24.6514463 63.5111906,27.2073571 63.5111906,29.9709556 C63.5111906,32.6589589 64.9683695,35.1400704 67.5284482,35.1400704 L67.5480868,35.1400704 L67.5480868,35.1400704 Z M67.4734603,36.4832763 C64.1270549,36.4832763 61.4452173,33.8700723 61.4452173,30.009151 C61.4452173,25.9580482 64.2763077,23.3074446 67.6407806,23.3074446 C71.0979474,23.3074446 73.6863056,25.9763502 73.6863056,29.7624722 C73.6863056,34.1358489 70.6871093,36.4832763 67.4915278,36.4832763 L67.4734603,36.4832763 L67.4734603,36.4832763 Z" id="Fill-11" fill="#005992"/><path d="M76.8056896,23.6058464 L78.5700152,26.2994199 C79.0303423,26.998078 79.4136864,27.6458088 79.8229534,28.3452626 L79.8991508,28.3452626 C80.3092033,27.5940858 80.7176848,26.9471507 81.1261662,26.2731605 L82.8653544,23.6058464 L85.2942477,23.6058464 L81.075106,29.6661879 L85.4222909,36.1411089 L82.8653544,36.1411089 L81.0499687,33.3186258 C80.5645042,32.5929127 80.1552373,31.8942546 79.7200475,31.1422821 L79.6697728,31.1422821 C79.2605059,31.8942546 78.8261016,32.567449 78.3649889,33.3186258 L76.5755261,36.1411089 L74.0955726,36.1411089 L78.4938177,29.7441702 L74.2998133,23.6058464 L76.8056896,23.6058464" id="Fill-12" fill="#005992"/></g></g></svg>

<svg width="100" height="60" xmlns="http://www.w3.org/2000/svg"><g fill="none" fill-rule="evenodd"><rect fill="#FFF" width="100" height="60" rx="4"/><path d="M18.08 19.54h-1.392v7.15h1.392c2.484 0 4.311-.948 4.311-3.69 0-2.654-2-3.46-4.311-3.46m.144 9.058h-1.536v7.586h-2.11V17.633h3.392c3.62 0 6.497 1.27 6.497 5.366 0 3.838-2.677 5.599-6.243 5.599m14.162 2.587c-.6-.865-2.024-1.442-2.88-1.442-1.618 0-2.9.718-2.9 2.538 0 1.53 1.249 2.367 2.678 2.367 1.078 0 3.102-.983 3.102-2.222v-1.24zm.685 4.816c-.23 0-.259-.287-.259-.287l-.283-.809c-.94.955-2.052 1.472-3.39 1.472-2.391 0-4.672-1.384-4.672-4.038 0-2.827 2.081-4.299 4.758-4.299 1.166 0 2.247.374 3.16 1.098v-1.474c0-1.872-1.314-2.652-3.023-2.652-2.021 0-3.24.81-3.24.81l-.373-1.098c1.081-.865 2.474-1.417 3.846-1.417 2.675 0 4.866 1.3 4.866 4.243v8.451h-1.39zm4.361-12.395l2.758 7.612c.315.85.63 1.862.84 2.633h.053c.237-.771.499-1.756.816-2.687l2.521-7.558h2.443l-3.468 9.181c-1.655 4.418-2.785 6.68-4.36 8.09-1.157.985-2.26 1.384-2.839 1.49l-.577-1.968c.577-.16 1.34-.532 2.023-1.145.63-.506 1.393-1.41 1.944-2.61.105-.238.184-.399.184-.557 0-.134-.054-.32-.184-.586L34.91 23.606h2.522m12.754 7.306c0 .36.03.671.118.982.468 1.68 1.686 2.716 3.415 2.716 2.754 0 4.19-2.096 4.19-4.657 0-2.74-1.582-4.809-4.248-4.809-1.934 0-2.977 1.19-3.357 2.612a3.75 3.75 0 0 0-.118.983v2.173zm0-13.113v7.448h.059c.616-.982 1.716-1.888 3.913-1.888 3.43 0 6.022 2.535 5.994 6.724 0 3.802-2.302 6.362-5.73 6.362-2.314 0-3.65-1.06-4.441-2.456h-.058l-.117 2.172h-1.883c.089-.854.118-2.109.118-3.22V17.8h2.145zM67.548 35.14c2.578 0 4.036-2.405 4.036-5.302 0-2.536-1.309-5.187-4.018-5.187-2.71 0-4.055 2.556-4.055 5.32 0 2.688 1.457 5.17 4.017 5.17h.02zm-.075 1.343c-3.346 0-6.028-2.613-6.028-6.474 0-4.051 2.831-6.702 6.196-6.702 3.457 0 6.045 2.67 6.045 6.455 0 4.374-2.999 6.721-6.194 6.721h-.019zm9.333-12.877l1.764 2.693c.46.7.844 1.347 1.253 2.046h.076c.41-.75.819-1.398 1.227-2.072l1.74-2.667h2.428l-4.219 6.06 4.347 6.475h-2.557L81.05 33.32a38.327 38.327 0 0 1-1.33-2.177h-.05c-.41.752-.844 1.425-1.305 2.177l-1.79 2.822h-2.48l4.399-6.397-4.194-6.138h2.506" fill="#005992"/></g></svg>
